X: 080525
T: Henchy's Delight
S: "Treoir" 32/2
Z: B.Black
M: 6/8
L: 1/8
R: jig
K: G
A | BAB GBG | ADE F2 G | AGA fed | cAG FGA |
BAB GBG | ADE F2 G | AGA fed | AFD G2 :|
d | gfg afd | gfg a2 d | gfg b2 g | a2 g fga |
geg fed | fed cde | fef ded | cAF G2 :|
